assets/img/achieves/lang/mql4.svg

<?xml version="1.0" standalone="no"?>
<!-- Generator: Adobe Fireworks 10, Export SVG Extension by Aaron Beall (http://fireworks.abeall.com) . Version: 0.6.1  -->
<!DOCTYPE svg PUBLIC "-//W3C//DTD SVG 1.1//EN" "http://www.w3.org/Graphics/SVG/1.1/DTD/svg11.dtd">
<svg id="Untitled-%u30DA%u30FC%u30B8%201" viewBox="0 0 1024 1024" style="background-color:#ffffff00" version="1.1"
	xmlns="http://www.w3.org/2000/svg" xmlns:xlink="http://www.w3.org/1999/xlink" xml:space="preserve"
	x="0px" y="0px" width="1024px" height="1024px"
>
	<defs>
		<linearGradient id="gradient1" x1="50%" y1="0%" x2="50%" y2="100%">
			<stop stop-color="#f7f7f8" stop-opacity="1" offset="0%"/>
			<stop stop-color="#e3e4e7" stop-opacity="1" offset="100%"/>
		</linearGradient>
		<linearGradient id="gradient2" x1="49.8424%" y1="-0.3033%" x2="49.8424%" y2="100%">
			<stop stop-color="#f99138" stop-opacity="1" offset="0%"/>
			<stop stop-color="#f38331" stop-opacity="1" offset="100%"/>
		</linearGradient>
		<linearGradient id="gradient3" x1="50%" y1="0%" x2="50%" y2="100.1495%">
			<stop stop-color="#827e7f" stop-opacity="1" offset="0%"/>
			<stop stop-color="#726e6f" stop-opacity="1" offset="100%"/>
		</linearGradient>
		<linearGradient id="gradient4" x1="49.7259%" y1="0%" x2="49.7259%" y2="100%">
			<stop stop-color="#efeff1" stop-opacity="1" offset="0%"/>
			<stop stop-color="#ebecee" stop-opacity="1" offset="100%"/>
		</linearGradient>
	</defs>
	<g id="%u80CC%u666F">
		<path id="%u6955%u5186%u5F62" d="M 10.7413 512 C 10.7413 235.1589 235.1589 10.7413 512 10.7413 C 788.8411 10.7413 1013.2587 235.1589 1013.2587 512 C 1013.2587 788.8411 788.8411 1013.2587 512 1013.2587 C 235.1589 1013.2587 10.7413 788.8411 10.7413 512 Z" fill="url(#gradient1)"/>
		<path id="%u6955%u5186%u5F622" d="M 76.2553 264.0585 C 34.5619 337.176 10.7413 421.8058 10.7413 512 C 10.7413 788.8411 235.1589 1013.2587 512 1013.2587 C 512.149 1013.2587 512.2981 1013.2586 512.4471 1013.2585 " stroke="#676634" stroke-width="20" fill="none"/>
		<path id="%u6955%u5186%u5F623" d="M 946.2737 261.4964 C 859.6226 111.5995 697.5914 10.7413 512 10.7413 C 325.3531 10.7413 162.5352 112.75 76.2553 264.0585 " stroke="#21491c" stroke-width="20" fill="none"/>
		<path id="%u6955%u5186%u5F624" d="M 512.4471 1013.2585 C 789.0827 1013.017 1013.2587 788.6921 1013.2587 512 C 1013.2587 420.7503 988.8774 335.1961 946.2737 261.4964 " stroke="#225f74" stroke-width="20" fill="none"/>
		<path d="M 892.4196 392 L 822.6014 549 L 881.6783 549 C 883.4685 518.5665 885.035 486.3427 888.6154 454.1189 C 901.1469 452.3287 915.4686 448.4475 928 444.8671 L 928 546.9091 C 936.951 548.6993 948.049 548.6993 957 546.9091 L 957 594 L 930.1469 594 C 928.3566 597.5804 930.014 602.951 930.014 663.8182 C 915.6923 665.6084 901.3706 666.8531 881.6783 668.6434 C 879.8881 665.0629 879.8881 601.1608 881.6783 597.5804 C 881.6783 597.5804 881.6783 594 876.3077 594 L 764 594 L 764 560.8252 L 840.979 392 L 892.4196 392 Z" fill="url(#gradient2)"/>
		<path d="M 543.3287 511.1049 C 543.3287 543.3287 534.3776 588.0839 498.5734 618.5175 C 514.6853 629.2587 532.5874 643.5804 559.4406 636.4196 C 548.6993 665.0629 552.2797 668.2238 529.007 668.2238 C 491.4126 668.2238 469.9301 636 455.6084 636 L 419.8042 636 C 416.2238 634.2098 417.2308 636.2238 410.5175 635.3287 C 373.0842 630.3376 338.6853 574.6573 336 536.1678 L 336 489.6224 C 338.6853 421.2961 386.1259 387.5804 439.8322 387.5804 C 516.8112 387.5804 543.3287 459.1888 543.3287 511.1049 ZM 192.4476 530.4755 L 230.042 391 L 294.4895 391 L 317.7622 633 L 264.0559 633 L 255.1049 491.7342 L 217.5105 633 L 169.1748 633 L 131.5804 491.7343 L 122.6294 633 L 68.9231 633 L 90.4056 391 L 156.6434 391 L 192.4476 530.4755 ZM 635 391 L 635 586 L 709.8182 586 C 709.8182 612.8531 709.8182 624.049 709.8182 633 L 581 633 L 581 391 L 635 391 ZM 482.4615 511.1049 C 482.4615 534.3776 479.3497 593.4545 438.1748 593.4545 C 407.7413 593.4545 397 550.4895 397 536.1678 L 397 487.8322 C 397 460.979 413.1119 430.5454 438.1748 430.5454 C 481.1399 430.5454 482.4615 493.2028 482.4615 511.1049 Z" fill="url(#gradient3)"/>
		<path d="M 482.4615 511.1049 C 482.4615 534.3776 479.3497 593.4545 439.965 593.4545 C 409.5315 593.4545 397 554.0699 397 536.1678 L 397 487.8322 C 397 460.979 413.1119 430.5454 438.1748 430.5454 C 481.1399 430.5454 482.4615 493.2028 482.4615 511.1049 Z" fill="url(#gradient4)"/>
	</g>
	<g id="%u30EC%u30A4%u30E4%u30FC%201">
	</g>
</svg>

<svg xmlns="http://www.w3.org/2000/svg" viewBox="0 0 1024 1024" style="background-color:#ffffff00">
  <defs>
    <linearGradient id="a" x1="50%" x2="50%" y1="0%" y2="100%">
      <stop stop-color="#f7f7f8" offset="0%"/>
      <stop stop-color="#e3e4e7" offset="100%"/>
    </linearGradient>
    <linearGradient id="b" x1="49.8%" x2="49.8%" y1="-.3%" y2="100%">
      <stop stop-color="#f99138" offset="0%"/>
      <stop stop-color="#f38331" offset="100%"/>
    </linearGradient>
    <linearGradient id="c" x1="50%" x2="50%" y1="0%" y2="100.1%">
      <stop stop-color="#827e7f" offset="0%"/>
      <stop stop-color="#726e6f" offset="100%"/>
    </linearGradient>
    <linearGradient id="d" x1="49.7%" x2="49.7%" y1="0%" y2="100%">
      <stop stop-color="#efeff1" offset="0%"/>
      <stop stop-color="#ebecee" offset="100%"/>
    </linearGradient>
  </defs>
  <path fill="url(#a)" d="M10.7 512C10.7 235.2 235.2 10.7 512 10.7s501.3 224.5 501.3 501.3-224.5 501.3-501.3 501.3S10.7 788.8 10.7 512z"/>
  <path fill="none" stroke="#676634" stroke-width="20" d="M76.3 264c-41.7 73.3-65.6 158-65.6 248 0 276.8 224.5 501.3 501.3 501.3h.4"/>
  <path fill="none" stroke="#21491c" stroke-width="20" d="M946.3 261.5C859.6 111.5 697.6 10.7 512 10.7c-186.6 0-349.5 102-435.7 253.4"/>
  <path fill="none" stroke="#225f74" stroke-width="20" d="M512.4 1013.3c276.7-.3 501-224.6 501-501.3 0-91.2-24.5-176.8-67-250.5"/>
  <path fill="url(#b)" d="M892.4 392l-69.8 157h59c2-30.4 3.4-62.7 7-95 12.5-1.7 27-5.6 39.4-9v102c9 1.7 20 1.7 29 0v47h-27c-1.6 3.6 0 9 0 69.8-14.3 1.8-28.6 3-48.3 4.8-1.8-3.5-1.8-67.4 0-71 0 0 0-3.6-5.4-3.6H764v-33.2L841 392h51.4z"/>
  <path fill="url(#c)" d="M543.3 511c0 32.3-9 77-44.7 107.5 16 10.8 34 25 60.8 18-10.7 28.6-7 31.7-30.4 31.7-37.6 0-59-32.2-73.4-32.2h-35.8c-3.6-1.8-2.6.2-9.3-.7-37.4-5-71.8-60.6-74.5-99v-46.7c2.7-68.3 50-102 103.8-102 77 0 103.5 71.6 103.5 123.5zm-351 19.5L230 391h64.5l23.3 242H264l-9-141.3L217.6 633h-48.3l-37.6-141.3-9 141.3H69l21.4-242h66.2l35.8 139.5zM635 391v195h74.8v47H581V391h54zM482.5 511c0 23.4-3.2 82.5-44.3 82.5-30.5 0-41.2-43-41.2-57.3v-48.4c0-26.8 16-57.3 41.2-57.3 43 0 44.3 62.7 44.3 80.6z"/>
  <path fill="url(#d)" d="M482.5 511c0 23.4-3.2 82.5-42.5 82.5-30.5 0-43-39.4-43-57.3v-48.4c0-26.8 16-57.3 41.2-57.3 43 0 44.3 62.7 44.3 80.6z"/>
</svg>
